packages/core/src/svgs/tokens/branded/HBTC.svg

<svg width="24" height="24" viewBox="0 0 24 24" fill="none" xmlns="http://www.w3.org/2000/svg">
<path fill-rule="evenodd" clip-rule="evenodd" d="M14.8826 21.9998C18.0253 21.9998 20.5682 19.5027 20.5682 16.4227C20.5608 15.6836 20.4077 14.9532 20.118 14.273C19.8283 13.593 19.4073 12.9768 18.8793 12.4595C18.3513 11.942 17.7267 11.5337 17.041 11.2579C16.3551 10.9819 15.6218 10.8437 14.8826 10.8513C13.3907 10.8376 11.9546 11.4168 10.8896 12.4615C9.8245 13.5061 9.2177 14.9309 9.20264 16.4227C9.2093 17.1618 9.36157 17.8925 9.65076 18.5727C9.93983 19.2531 10.3601 19.8698 10.8876 20.3876C11.4149 20.9056 12.0393 21.3144 12.7247 21.5911C13.4102 21.8678 14.1434 22.0066 14.8826 21.9998ZM15.5911 12.8341L14.9511 12.6628L14.6826 13.5998L13.0826 13.1599L12.8141 14.097L13.4541 14.2741C13.6311 14.3198 13.7398 14.5028 13.6826 14.6741L12.9626 17.1827C12.9169 17.3541 12.7341 17.457 12.5569 17.4113L12.2369 17.3198L11.6483 18.1713L13.2483 18.6113L12.9741 19.554L13.6141 19.7255L13.8826 18.7885L14.2026 18.8741L13.9341 19.817L14.574 19.9884L14.8426 19.0513L15.4826 19.2285C15.8708 19.3223 16.2804 19.2631 16.6262 19.0631C16.972 18.863 17.2275 18.5375 17.3397 18.1541C17.5225 17.5255 17.2368 16.9427 16.7111 16.5998C16.969 16.5041 17.1896 16.3289 17.3415 16.0996C17.4932 15.8702 17.5681 15.5986 17.5553 15.3238C17.5427 15.0492 17.4429 14.7856 17.2707 14.5712C17.0984 14.3569 16.8624 14.2028 16.5968 14.1313L16.2826 14.0398L16.5511 13.1028L15.9111 12.9256L15.6426 13.8628L15.3226 13.777L15.5911 12.8341ZM16.0083 14.977L15.054 14.7141L14.7798 15.657L15.7398 15.9198C15.8027 15.9382 15.8688 15.9438 15.934 15.9365C15.9992 15.929 16.0623 15.9089 16.1198 15.877C16.1771 15.8452 16.2276 15.8022 16.2683 15.7508C16.309 15.6993 16.3391 15.6402 16.3568 15.577C16.3742 15.5152 16.379 15.4504 16.3711 15.3866C16.3631 15.3228 16.3427 15.2612 16.3107 15.2054C16.2788 15.1496 16.2362 15.1006 16.1852 15.0614C16.1343 15.0222 16.0762 14.9936 16.014 14.977H16.0083ZM15.6311 16.9027L14.5111 16.5941L14.1511 17.8513L15.2711 18.1541C15.3536 18.1778 15.44 18.1849 15.5254 18.1751C15.6107 18.1654 15.6932 18.139 15.7683 18.0973C15.8434 18.0557 15.9095 17.9997 15.963 17.9325C16.0164 17.8651 16.056 17.7881 16.0798 17.7055C16.1034 17.623 16.1106 17.5366 16.1007 17.4513C16.091 17.3661 16.0646 17.2834 16.0228 17.2083C15.9812 17.1333 15.9252 17.0671 15.858 17.0137C15.7908 16.9603 15.7136 16.9206 15.6311 16.897V16.9027Z" fill="#F89828"/>
<path d="M10.1858 10.8513C10.4715 9.78844 10.7287 7.04562 11.363 5.45135C12.0812 6.82465 12.9268 8.12749 13.8887 9.34274C12.5371 9.48743 11.2538 10.0103 10.1858 10.8513Z" fill="url(#paint0_linear_364_8632)"/>
<path d="M5.31127 10.3199C6.78554 8.35423 8.87692 5.82853 9.65411 2C10.1912 3.4457 10.6998 7.67994 8.39124 13.0628C6.37412 17.7485 8.56837 20.674 10.1912 21.9997C3.45415 21.7827 1.60274 15.2741 5.31698 10.3199H5.31127Z" fill="url(#paint1_linear_364_8632)"/>
<path d="M5.15706 16.4227C5.03135 17.697 5.11706 19.1255 5.65991 20.4855C6.76847 21.377 8.28845 21.937 10.1855 21.9998C8.56274 20.674 6.36847 17.7541 8.3856 13.0628C10.6484 7.78281 10.2084 3.60571 9.67698 2.09143C9.72272 5.22284 8.53417 7.64566 7.35704 10.0513C6.37419 12.0571 5.39706 14.0513 5.15706 16.4227ZM11.8827 9.85707C11.7835 8.44298 11.5848 7.03762 11.2884 5.65141C10.9299 6.81094 10.6662 7.99769 10.4999 9.19993C10.3855 9.87992 10.2884 10.4685 10.1855 10.8513C10.5742 10.5199 11.1742 10.1485 11.8827 9.85707Z" fill="url(#paint2_linear_364_8632)"/>
<defs>
<linearGradient id="paint0_linear_364_8632" x1="9.2766" y1="2.9735" x2="11.9048" y2="19.2867" gradientUnits="userSpaceOnUse">
<stop stop-color="#96CAFF"/>
<stop offset="1" stop-color="#82B0F9"/>
</linearGradient>
<linearGradient id="paint1_linear_364_8632" x1="19.8729" y1="3.06287" x2="18.6669" y2="22.4151" gradientUnits="userSpaceOnUse">
<stop stop-color="#7EB5FE"/>
<stop offset="1" stop-color="#246FFE"/>
</linearGradient>
<linearGradient id="paint2_linear_364_8632" x1="9.73432" y1="2.88609" x2="8.95726" y2="21.9144" gradientUnits="userSpaceOnUse">
<stop stop-color="#81B0FA"/>
<stop offset="1" stop-color="#0E33E8"/>
</linearGradient>
</defs>
</svg>

<svg xmlns="http://www.w3.org/2000/svg" width="24" height="24" fill="none" viewBox="0 0 24 24">
    <path fill="#F89828" fill-rule="evenodd" d="M14.883 22c3.142 0 5.685-2.497 5.685-5.577a5.63 5.63 0 0 0-5.685-5.572 5.63 5.63 0 0 0-5.68 5.572 5.625 5.625 0 0 0 3.522 5.168 5.6 5.6 0 0 0 2.158.409m.708-9.166-.64-.171-.268.937-1.6-.44-.269.937.64.177a.316.316 0 0 1 .229.4l-.72 2.509a.33.33 0 0 1-.406.228l-.32-.091-.589.851 1.6.44-.274.943.64.172.269-.937.32.085-.269.943.64.171.269-.937.64.178a1.555 1.555 0 0 0 1.857-1.075c.183-.628-.103-1.211-.629-1.554a1.298 1.298 0 0 0-.114-2.469l-.314-.091.268-.937-.64-.177-.268.937-.32-.086zm.417 2.143-.954-.263-.274.943.96.263a.496.496 0 0 0 .57-.715.5.5 0 0 0-.296-.228zm-.377 1.926-1.12-.309-.36 1.257 1.12.303a.65.65 0 0 0 .809-.448.65.65 0 0 0-.449-.809z" clip-rule="evenodd"/>
    <path fill="url(#HBTC__a)" d="M10.186 10.851c.286-1.063.543-3.805 1.177-5.4a25 25 0 0 0 2.526 3.892 7.23 7.23 0 0 0-3.703 1.508"/>
    <path fill="url(#HBTC__b)" d="M5.311 10.32C6.786 8.354 8.877 5.829 9.654 2c.537 1.446 1.046 5.68-1.263 11.063-2.017 4.685.177 7.611 1.8 8.937-6.737-.217-8.588-6.726-4.874-11.68z"/>
    <path fill="url(#HBTC__c)" d="M5.157 16.423c-.126 1.274-.04 2.703.503 4.063 1.108.891 2.628 1.451 4.525 1.514-1.622-1.326-3.817-4.246-1.8-8.937 2.263-5.28 1.823-9.457 1.292-10.972.046 3.132-1.143 5.555-2.32 7.96-.983 2.006-1.96 4-2.2 6.372m6.726-6.566c-.1-1.414-.298-2.82-.595-4.206A22.4 22.4 0 0 0 10.5 9.2c-.114.68-.212 1.269-.315 1.651.39-.331.99-.703 1.698-.994"/>
    <defs>
        <linearGradient id="HBTC__a" x1="9.277" x2="11.905" y1="2.974" y2="19.287" gradientUnits="userSpaceOnUse">
            <stop stop-color="#96CAFF"/>
            <stop offset="1" stop-color="#82B0F9"/>
        </linearGradient>
        <linearGradient id="HBTC__b" x1="19.873" x2="18.667" y1="3.063" y2="22.415" gradientUnits="userSpaceOnUse">
            <stop stop-color="#7EB5FE"/>
            <stop offset="1" stop-color="#246FFE"/>
        </linearGradient>
        <linearGradient id="HBTC__c" x1="9.734" x2="8.957" y1="2.886" y2="21.914" gradientUnits="userSpaceOnUse">
            <stop stop-color="#81B0FA"/>
            <stop offset="1" stop-color="#0E33E8"/>
        </linearGradient>
    </defs>
</svg>
